X:1
T:James Gibb editions
T:Hallelujah! He is risen - Barnby
%%score [ ( 1 2 ) ( 3 4 ) ]
L:1/8
Q:1/4=160
M:3/2
K:A
V:1 treble nm="Midi_74"
V:2 treble 
V:3 bass nm="Midi_74"
V:4 bass 
V:1
"^Philip Paul Bliss\n(1838-76)""^Hallelujah! He is risen""^Joseph Barnby\n(1838-96)""^87. 87. 47" E3 E | %1
w: |
 A4 A4 A3 A | c4 c4 || A3 B- | c3 d e4 B4 | c8 || A3 B | c4 G4 A2 B2 | c4 G4 || A2 c2 | %10
w: |||||||||
 B2 E2 G4 F4 | E8 || E2 A2 | B4 E4 || [A,EA]4 | [B,EG]8 ||!ff! A2 e2 | d6 B2 A2 G2 | A8 || A12 | %20
w: ||He is|ri- sen!|||||||
 A12 |] %21
w: |
V:2
 E3 E | A4 A4 E3 E | F4 F4 || A3 A | A3 A A4 G4 | A8 || A3 F | G4 ^E4 F2 F2 | G4 ^E4 || F2 F2 | %10
 B,2 E2 E4 ^D4 | E8 || [Aea]4 | [Beb]8 || x4 | x4 x4 || E2 C2 | D6 F2 E2 E2 | E8 || F12 | E12 |] %21
V:3
 E,3 E, | A,4 A,4 C3 C | A,4 A,4 || C3 D | E3 D C4 D4 | C8 || C3 C | C4 C4 C2 C2 | C4 C4 || %9
w: |||||||||
 C2 A,2 | %10
w: |
 G,2 C2 B,4"^1. Hallelujah, He is risen!\nJesus is gone up on high!\nBurst the bars of death asunder,\nAngels shout and men reply:\nHe is risen, He is risen,\nLiving now no more to die.\n\n2. Hallelujah, He is risen!\nOur exalted Head to be;\nSends the witness of the Spirit\nThat our advocate is He:\nHe is risen, He is risen,\nJustified in Him are we.\n\n3. Hallelujah, He is risen!\nDeath for aye hath lost his sting,\nChrist, Himself the Resurrection,\nFrom the grave His own will bring:\nHe is risen, He is risen,\nLiving Lord and coming King." A,4 | %11
w: |
 G,8 ||"^Sw. Org." [CE]4 | [DEG]8 ||"^Gt. Org." E,2 A,2 | B,4 E,4 || A,2 A,2 | A,6 B,2 C2 D2 | %18
w: |||He is|ri- sen!|||
 C8 || D12 | C12 |] %21
w: |||
V:4
 E,3 E, | A,4 A,4 A,3 A, | F,4 F,4 || F,3 F, | E,3 E, E,4 E,4 | A,8 || F,3 F, | ^E,4 C,4 F,2 F,2 | %8
 ^E,4 C,4 || F,2 ^D,2 | E,2 A,,2 B,,4 B,,4 | E,8 || x4 | x4 x4 || [C,E,]4 | [D,E,]8 || C,2 =G,2 | %17
 F,6 D,2 E,2 E,2 | A,,8 || D,12 | A,,12 |] %21

